client/resources/iconsets/breeze/src/svg/16x16/icon_reply.svg

<svg xmlns="http://www.w3.org/2000/svg" width="16" height="16" viewBox="0 0 16 16">
 <path style="fill:#6d6d70"
       d="M 7.5292969 2 C 7.3942387 1.9921535 7.2617643 2.0393652 7.1621094 2.1308594 L 1.1621094 7.6308594 C 0.94513737 7.8291288 0.94513738 8.1708712 1.1621094 8.3691406 L 7.1621094 13.869141 C 7.483027 14.163227 8.0004147 13.935287 8 13.5 L 8 10 L 14 10 C 14.554 10 15 9.554 15 9 L 15 7 C 15 6.446 14.554 6 14 6 L 8 6 L 8 2.5 C 8.0004304 2.2349155 7.7939248 2.0155569 7.5292969 2 z "
       />
</svg>

<svg xmlns="http://www.w3.org/2000/svg" width="16" height="16"><path d="M7.529 2a.5.5 0 0 0-.367.131l-6 5.5a.5.5 0 0 0 0 .738l6 5.5A.5.5 0 0 0 8 13.5V10h6a1 1 0 0 0 1-1V7a1 1 0 0 0-1-1H8V2.5a.5.5 0 0 0-.471-.5z" fill="#6d6d70"/></svg>
